build/img/sprite/mute_button.svg

<svg width="19" height="15" viewBox="0 0 19 15" fill="none" xmlns="http://www.w3.org/2000/svg">
<path d="M8.81247 2.62648C8.81247 1.87618 7.92743 1.47657 7.36463 1.97276L4.66498 4.35286C4.50579 4.4932 4.30086 4.57064 4.08864 4.57064H1.77385C1.29253 4.57064 0.902344 4.96082 0.902344 5.44214V9.51066C0.902344 9.99198 1.29253 10.3822 1.77385 10.3822H4.08864C4.30086 10.3822 4.50579 10.4596 4.66498 10.5999L7.36463 12.98C7.92743 13.4762 8.81247 13.0766 8.81247 12.3263V2.62648Z" stroke="#4C4C4C" stroke-width="1.30726" stroke-linecap="round"/>
<path d="M17.9997 4.65088L12.3496 10.301" stroke="#4C4C4C" stroke-width="1.30726" stroke-linecap="round"/>
<path d="M12.3496 4.65088L17.9997 10.301" stroke="#4C4C4C" stroke-width="1.30726" stroke-linecap="round"/>
</svg>

<svg width="19" height="15" viewBox="0 0 19 15" fill="none" xmlns="http://www.w3.org/2000/svg"><path d="M8.812 2.626a.872.872 0 00-1.447-.653l-2.7 2.38a.872.872 0 01-.576.218H1.774a.872.872 0 00-.872.871v4.069c0 .481.39.871.872.871h2.315c.212 0 .417.078.576.218l2.7 2.38a.871.871 0 001.447-.654v-9.7zM18 4.65l-5.65 5.651m0-5.651L18 10.302" stroke="#4C4C4C" stroke-width="1.307" stroke-linecap="round"/></svg>
